X:1
T:James Gibb editions
T:Adoramus te a 3 - Lasso
T:#
%%score [ 1 2 3 ]
L:1/8
Q:1/4=90
M:2/2
K:F
V:1 treble nm="Soprano I" snm="S I"
V:2 treble nm="Soprano II" snm="S II"
V:3 treble nm="Alto" snm="A"
V:1
"^Adoramus te a 3""^Orlando di Lasso\n(1532-94)" c6 c2 | (c4 d4) | G4 A2 (c2- | c2 B3 A AG/F/ | %4
w: A- do-|ra\- *|mus te, Chri\-||
 G4) A4 |[M:2/2] z2 c2 (A3 B | c2) F2 G2 A2 | B2 (AB cA d2) | (c3 B/A/ B4) | z2 A2 F2 G2 | %10
w: * ste,|et be\- *|* ne- di- ci-|mus ti\- * * * *|bi, * * *|qui- a per|
 A2 F2 (BA Bc | d2 c2 (B3 A/G/ | A4) G2 =B2- | B2 !courtesy!=B2 c4 | d4 e4 | d4) c4 | c6 c2 | %17
w: tu- am san\- * * *|* ctam cru\- * *|* cem re|* de- mi-|sti mun\-|* dum,|Do- mi-|
 c4 F4 | G4 B2 A2 | G8 | A2 c2[Q:1/4=88] c2[Q:1/4=86] (A2- | %21
w: ne, mi-|se- re- re|no-|bis, mi- se- re\-|
[Q:1/4=85] A[Q:1/4=84]B[Q:1/4=82] c2)[Q:1/4=80] A2[Q:1/4=78] B2 |[Q:1/4=78] !fermata!c8 |] %23
w: * * * re no-|bis.|
V:2
 A4 G2 (A2- | AB c3 B/A/ Bc | d2) B2 (F3 G | A2) (G3 F F2- | FE/D/ E2) F4- |[M:2/2] F4 z2 c2 | %6
w: A- do- ra\-||* mus te, *|* Chri\- * *|* * * * ste,|* et|
 (A3 B c2) c2 | F2 F2 F2 (B2- | BA A3 G/F/ G2) | A2 F2 D2 E2 | F2 D2 d4 | G2 (A3 G G2- | %12
w: be\- * * ne-|di- ci- mus ti\-||bi, qui- a per|tu- am san-|ctam cru\- * *|
 G^F/E/ F2) G4 | G4 E2 (F2- | FD G2) C4 | G4 A2 F2- | F2 G2 A4 | (F4 D4) | _E2 E4 F2 | C4 C2 c2 | %20
w: * * * * cem|re- de- mi\-|* * * sti|mun- dum, Do\-|* mi- ne,|mi\- *|se- re- re|no- bis, mi-|
 c2 (A3 G FE | D2) A2 D4 | !fermata!A8 |] %23
w: se- re\- * * *|* re no-|bis.|
V:3
 F4 E2 (F2- | FG A2) (G3 A | Bc d2) (cB AG | FC _E2) D4 | C4 z2 c2 |[M:2/2] (A3 B c2) F2 | %6
w: A- do- ra\-|* * * mus *|* * * te * * *|* * * Chri-|ste, et|be\- * * ne-|
 F2 D2 E2 F2 | D4 z4 | z2 F2 D2 E2 | (F3 G AB c2) | (c2 BA GF GA | B2 F2 G2 _E2 | D4 z4 | %13
w: di- ci- mus ti-|bi,|qui- a per|tu\- * * * *|am * * * * * *|* san- ctam cru-|cem|
 d4 G2 (A2- | AF B2) G2 c2- | cB/A/ B2) c2 A2- | A2 E2 F3 G | A2 A4 B2 | B4 G2 (F2- | F2 ED E4) | %20
w: re- de- mi\-|* * * sti mun\-|* * * * dum, Do\-|* mi- ne, *|* mi- se-|re- re no\-||
 F8- | F8 | !fermata!F8 |] %23
w: bis.|||

